src/flags/country-flag/1F1EC-1F1FA.svg

<svg id="emoji" viewBox="0 0 72 72" xmlns="http://www.w3.org/2000/svg">
  <g id="grid">
    <path fill="#b3b3b3" d="M68,4V68H4V4H68m4-4H0V72H72V0Z"/>
    <path fill="none" stroke="#00a5ff" stroke-miterlimit="10" stroke-width="0.1" d="M12.923,10.9583H59.0769A1.9231,1.9231,0,0,1,61,12.8814V59.0352a1.9231,1.9231,0,0,1-1.9231,1.9231H12.9231A1.9231,1.9231,0,0,1,11,59.0352V12.8813A1.923,1.923,0,0,1,12.923,10.9583Z"/>
    <rect x="16" y="4" rx="2.2537" ry="2.2537" width="40" height="64" fill="none" stroke="#00a5ff" stroke-miterlimit="10" stroke-width="0.1"/>
    <rect x="16" y="4" rx="2.2537" ry="2.2537" width="40" height="64" transform="translate(72) rotate(90)" fill="none" stroke="#00a5ff" stroke-miterlimit="10" stroke-width="0.1"/>
    <circle cx="36" cy="36" r="29" fill="none" stroke="#00a5ff" stroke-miterlimit="10" stroke-width="0.1"/>
  </g>
  <g id="color">
    <rect x="5" y="17" width="62" height="38" fill="#1e50a0"/>
    <path fill="#92d3f5" stroke="#d22f27" stroke-linecap="round" stroke-linejoin="round" d="M36.0018,46.5A11.7362,11.7362,0,0,0,42,36.0005,11.736,11.736,0,0,0,36,25.5a11.736,11.736,0,0,0-6,10.5005A11.7364,11.7364,0,0,0,35.9982,46.5Z"/>
    <path fill="#fcea2b" d="M30.64,40a11.2419,11.2419,0,0,0,5.3581,6.5h.0035A11.2419,11.2419,0,0,0,41.36,40Z"/>
    <rect x="7" y="19" width="58" height="34" fill="none" stroke="#d22f27" stroke-miterlimit="10" stroke-width="2"/>
    <line x1="28" x2="44" y1="39" y2="39" fill="none" stroke="#1e50a0" stroke-linecap="round" stroke-linejoin="round" stroke-width="2"/>
    <path fill="none" stroke="#d22f27" stroke-linecap="round" stroke-linejoin="round" stroke-width="2" d="M36.0018,46.5A11.7362,11.7362,0,0,0,42,36.0005,11.736,11.736,0,0,0,36,25.5a11.736,11.736,0,0,0-6,10.5005A11.7364,11.7364,0,0,0,35.9982,46.5Z"/>
  </g>
  <g id="line">
    <rect x="5" y="17" width="62" height="38" fill="none" stroke="#000" stroke-linecap="round" stroke-linejoin="round" stroke-width="2"/>
  </g>
</svg>

<svg viewBox="0 0 72 72" xmlns="http://www.w3.org/2000/svg"><path fill="#b3b3b3" d="M68 4v64H4V4h64m4-4H0v72h72V0z"/><path fill="none" stroke="#00a5ff" stroke-miterlimit="10" stroke-width=".1" d="M12.923 10.958h46.154A1.923 1.923 0 0161 12.881v46.154a1.923 1.923 0 01-1.923 1.923H12.923A1.923 1.923 0 0111 59.035V12.881a1.923 1.923 0 011.923-1.923z"/><rect x="16" y="4" rx="2.254" ry="2.254" width="40" height="64" fill="none" stroke="#00a5ff" stroke-miterlimit="10" stroke-width=".1"/><rect x="16" y="4" rx="2.254" ry="2.254" width="40" height="64" transform="rotate(90 36 36)" fill="none" stroke="#00a5ff" stroke-miterlimit="10" stroke-width=".1"/><circle cx="36" cy="36" r="29" fill="none" stroke="#00a5ff" stroke-miterlimit="10" stroke-width=".1"/><path d="M5 17h62v38H5z" stroke-linecap="round" stroke-miterlimit="10" stroke-width="6" stroke="#fff" fill="none" stroke-linejoin="round"/><path fill="#1e50a0" d="M5 17h62v38H5z"/><path fill="#92d3f5" stroke="#d22f27" stroke-linecap="round" stroke-linejoin="round" d="M36.002 46.5A11.736 11.736 0 0042 36a11.736 11.736 0 00-6-10.5A11.736 11.736 0 0030 36a11.736 11.736 0 005.998 10.5z"/><path fill="#fcea2b" d="M30.64 40a11.242 11.242 0 005.358 6.5h.004A11.242 11.242 0 0041.36 40z"/><path fill="none" stroke="#d22f27" stroke-miterlimit="10" stroke-width="2" d="M7 19h58v34H7z"/><path fill="none" stroke="#1e50a0" stroke-linecap="round" stroke-linejoin="round" stroke-width="2" d="M28 39h16"/><path fill="none" stroke="#d22f27" stroke-linecap="round" stroke-linejoin="round" stroke-width="2" d="M36.002 46.5A11.736 11.736 0 0042 36a11.736 11.736 0 00-6-10.5A11.736 11.736 0 0030 36a11.736 11.736 0 005.998 10.5z"/><g><path fill="none" stroke="#000" stroke-linecap="round" stroke-linejoin="round" stroke-width="2" d="M5 17h62v38H5z"/></g></svg>
